!!!COM: Chopin, Frederic
!!!CDT: 1810///-1849///
!!!OTL: Mazurka in B-flat Minor, Op. 24, No. 4
!!!OPS: Op. 24
!!!ONM: No. 4
!!!OMD: Moderato
!!!ODT: 1833///
!!!PDT: 1836///
!!!PPP: Leipzig, Paris and London
!!!ODE: Count de Perthuis
**kern	**kern	**dynam
*thru	*thru	*thru
*staff2	*staff1	*staff1/2
*Ipiano	*Ipiano	*Ipiano
*>A	*>A	*>A
*clefF4	*clefG2	*clefG2
*k[b-e-a-d-g-]	*k[b-e-a-d-g-]	*k[b-e-a-d-g-]
*b-:	*b-:	*b-:
*M3/4	*M3/4	*M3/4
*MM138	*MM138	*MM138
=21!|:	=21!|:	=21!|:
*>B	*>B	*>B
4AA-/	8b-/L]	.
.	16r	.
.	(16g-/ 16a-/k	.
4E-\ 4A-\	8c/	.
.	8g-/ 8a-/J	.
4E-\ 4A-\ 4c\	(4ee-^\)	.
=22	=22	=22
4DD-/	8b-'/L)	.
.	16r	.
.	(16f/ 16a-/k	.
4F\ 4A-\	8d-/	.
.	8f/ 8a-/J	.
4F\ 4A-\ 4d-\	(4ff^\)	.
=23	=23	=23
4AA-/	8b-/L)	.
.	16r	.
.	(16g-/ 16a-/k	.
4E-\ 4A-\	8c/	.
.	8g-/ 8a-/J	.
4E-\ 4A-\ 4c\	4gg-^\)	.
=24	=24	=24
4D-\	[4bb-^\	.
4A-\ 4c-\ 4f\	8bb-\L]	.
.	16r	.
.	(16aa-\K	.
4Dn\	8.cc-^\)	.
.	(16aa-\Jk	.
=25	=25	=25
&(4E-\&)	[8.b-\L)	.
.	32b-]	.
.	32aa-\kk	.
4G-\ 4B-\ 4e-\	[8.b-\	.
.	32b-]	.
.	(32aa-\kk	.
4GG-/	[8.b-\)	.
.	32b-]	.
.	(32gg-\Jkk	.
=26	=26	=26
&(4AA-'/&)	[8.b--\L)	.
.	32b--]	.
.	(32gg-\kk	.
4F\ 4d-\	[8.a-\)	.
.	32a-]	.
.	32gg-\kk	.
4F\ 4d-\	[8.a-\	.
.	32a-]	.
.	(32ff\Jkk	.
=27	=27	=27
4AA-'/	[8.gn\L)	.
.	32gn]	.
.	32ff\kk	.
4E-\ 4A-\ 4c\	[8.g-\	.
.	32g-]	.
.	32ff\kk	.
4E-\ 4A-\ 4c\	[8.g-\	.
.	32g-]	.
.	32ee-\Jkk	.
=28	=28	=28
*^	*^	*
4r	2D-\	([8.f/L	4f\	.
.	.	32f]	.	.
.	.	32ee-/Jkk	.	.
4A-/ 4d-/	.	12dd-/L	4f\	.
.	.	12ee-/	.	.
.	.	12dd-/J	.	.
4r	4GGn/	8cc/L	4en^\	.
.	.	16.r	.	.
.	.	32b-/Jkk	.	.
*v	*v	*	*	*
=29	=29	=29	=29
&(4AA-/&)	8b-'/L)	4c\	.
.	16r	.	.
.	16g-/ (16a-/k	.	.
4E-\ 4A-\	8c/	4c\	.
.	8g-/ 8a-/J	.	.
4E-\ 4A-\ 4c\	4r	(4ee-\)	.
*	*v	*v	*
=30	=30	=30
4DD-/	8b-'/L)	.
.	16r	.
.	(16f/ 16a-/k	.
4F\ 4A-\	8d-/	.
.	8f/ 8a-/J	.
4F\ 4A-\ 4d-\	(4ff\)	.
=31	=31	=31
4AA-/	8b-'/L)	.
.	16r	.
.	(16g-/ 16a-/k	.
4E-\ 4A-\	8c/	.
.	8g-/ 8a-/J	.
4E-\ 4A-\ 4c\	4gg-\)	.
=32	=32	=32
4D-\	[4bb-\	f
4A-\ 4c-\ 4f\	8bb-\L]	.
.	16r	.
.	(16aa-\K	.
4Dn\	8.cc-\)	.
.	(16aa-\Jk	.
=33	=33	=33
&(4E-\&)	[8.b-\L)	.
.	32b-]	.
.	(32aa-\kk	.
4G-\ 4B-\ 4e-\	[8.b-\)	.
.	32b-]	.
.	32aa-\kk	.
4GG-/	8.b-\	.
.	32b-]	.
.	(32gg-\Jkk	.
=34	=34	=34
&(4AA-/&)	[8.b--\L)	.
.	32b--]	.
.	(32gg-\kk	.
4F\ 4d-\	[8.a-\)	.
.	32a-]	.
.	(32gg-\kk	.
4F\ 4d-\	[8.a-\)	.
.	32a-]	.
.	(32ff\Jkk	.
=35	=35	=35
4AA-/	[8.gn\L)	.
.	32gn]	.
.	32een\kk	.
4E-\ 4c\	[8.g-\	.
.	32g-]	.
.	32ee-\kk	.
4r	[8.f\	.
.	32f]	.
.	32ddn\Jkk	.
=36	=36	=36
2.r	[8.f-\L	.
.	32f-]	.
.	32dd-\kk	.
.	[8.e-\	.
.	32e-]	.
.	32dd-\kk	.
.	[8.e-\	.
.	32e-]	.
.	[32dd-\Jkk	.
=37	=37	=37
*	*^	*
4FF'/	4.dd-/]	4.e-\	.
4F\ 4c\	.	.	.
.	8an/L	8g-\L	.
4F\ 4c\	8dd-/	8f\	.
.	8a/J	8e-\J	.
=38	=38	=38	=38
4BB-'/	8.an/L	8.e-\L	.
.	16b-/Jk	16d-\Jk	.
4F\ 4B-\	4b-/	4d-\	.
4E-\ 4d-\	4b-/	4gn\	.
=39	=39	=39	=39
4AA-'/	(4.ff/	4.a-\	.
4A-\ 4g-\	.	.	.
.	8cc/L	8b--\L	.
4A-\ 4g-\	8ff/	8a-\	.
.	8cc/J	8g-\J	.
=40	=40	=40	=40
4D-/	8.cc/L	8.g-\L	.
.	16dd-/Jk	16f\Jk	.
4A-\ 4d-\	4dd-'/)	4f\	.
4Gn\ 4f\	(4dd-^/	4bn\	.
=41	=41	=41	=41
4C/	4.aa-/	4.cc\	.
*clefG2	*	*	*
4c/ 4b-/	.	.	.
.	8een/L	8dd-\L	.
4c/ 4b-/	8aa-/	8cc\	.
.	8ee/J	8b-\J	.
=42	=42	=42	=42
*^	*	*	*
4r	2.F\	8.een/L	8.b-\L	.
.	.	16ff/Jk	16an\Jk	.
&(4c/&) 4f/	.	4ff'/	4a\	.
4c/ 4an/	.	4r	[4ff\ ([4fff\)	ff
*v	*v	*	*	*
*	*v	*v	*
*clefF4	*	*
=43	=43	=43
4FF/	8.ff\] 8.fff\L]	.
.	16gg-\ 16ggg-\Jk	.
*clefG2	*	*
4c/ 4e-/ 4an/	4gg-\ 4ggg-\)	.
4e-/ 4cc/	(4an^/	p
=44	=44	=44
*clefF4	*	*
4BB-'/	4.cc\	>
4F\ 4d-\	.	.
.	8b-\	.
4F\ 4d-\	12b-/L	.
.	12a-/	.
.	12g-/J)	.
=45	=45	=45
*	*^	*
4BB-'/	(4.dd-/	8f\L	.
.	.	8g-\	.
4F\ 4c\ 4e-\	.	8f\	.
.	8an/L	8g-\	.
4F\ 4c\ 4e-\	8dd-/	8f\	.
.	8a/J	8e-\J	.
=46	=46	=46	=46
4BB-'/	8.an/L	8.e-\L	.
.	16b-/Jk	16d-\Jk	.
4F\ 4B-\	4b-/)	4d-\	.
4E-\ 4d-\	12b-/L	4gn^\	.
.	12cc/	.	.
.	12b-/J	.	.
=47	=47	=47	=47
4AA-/	(4.ff/	8a-\L	<
.	.	8b--\	.
4A-\ 4c\ 4g-\	.	8a-\	.
.	8ccn/L	8b--\	.
4A-\ 4c\ 4g-\	8ff/	8a-\	.
.	8cc/J	8g-\J	.
=48	=48	=48	=48
4D-\	8.cc/L	8.g-\L	.
.	16dd-/Jk	16f\Jk	.
4A-\ 4d-\	4dd-/)	4f\	.
4Gn\ 4f\	(12dd-/L	4bn\	.
.	12ee-/	.	.
.	12dd-/J)	.	.
=49	=49	=49	=49
4C/	(4.aa-/	8cc\L	.
.	.	8dd-\	.
*clefG2	*	*	*
4c/ 4gn/ 4b-/	.	8cc\	.
.	8een/L	8dd-\	.
4c/ 4g/ 4b-/	8aa-/	8cc\	.
.	8ee/J	8b-\J	.
*clefF4	*	*	*
=50	=50	=50	=50
*^	*	*	*
2F\	4r	8.een/L	8.b-\L	.
.	.	16ff/Jk	16a\Jk	.
.	4c/ 4f/	4ff/)	4a\	.
4F\ 4c\ 4an\	4r	4r	4ff\ (4fff\	.
*v	*v	*	*	*
*	*v	*v	*
=51	=51	=51
4FF/	8.aa-\ 8.aaa-\L	ff
.	16gg-\ 16ggg-\Jk	.
*clefG2	*	*
4c/ 4e-/ 4an/ 4cc/	4gg-\ 4ggg-\)	.
*clefF4	*	*
4F\ 4c\ 4e-\	(4an/	.
=52	=52	=52
*>B1	*>B1	*>B1
4BB-/	2.b-\)	.
4F\ 4d-\	.	.
!!!ENC: Craig Stuart Sapp
!!!END: 2005/03/03/
!!!URL: http://www.chopinsociety.org/maz_rf.htm#maz244 (short description by David Dubal)
!!!URL: http://chopin.lib.uchicago.edu/gsdl/cgi-bin/library?e=d-000-00---0chopin--00-0-0-0prompt-10---4---Document-dtt--0-1l--1-en-Zz-1---50-home-mazurka--001-001-0-0utfZz-8-0&a=d&c=chopin&cl=CL3.10.9 (Early editions of op. 24 at the University of Chicago)
